Newaita-dark/apps/16/com.github.lainsce.yishu.svg

<svg height="16pt" viewBox="0 0 16 16" width="16pt" xmlns="http://www.w3.org/2000/svg" xmlns:xlink="http://www.w3.org/1999/xlink"><linearGradient id="a" gradientUnits="userSpaceOnUse" x1="7.938261" x2="7.938261" y1="14.0169675" y2="14.67848943751"><stop offset="0" stop-opacity=".27451"/><stop offset="1" stop-opacity="0"/></linearGradient><linearGradient id="b"><stop offset="0" stop-opacity=".313725"/><stop offset=".222222" stop-opacity=".27451"/><stop offset="1" stop-opacity="0"/></linearGradient><radialGradient id="c" cx="450.90894" cy="189.57936" gradientTransform="matrix(.00000009 -.0390662 -.0703192 -.00000005 26.065324 31.797667)" gradientUnits="userSpaceOnUse" r="21.166656" xlink:href="#b"/><radialGradient id="d" cx="450.90894" cy="189.57936" gradientTransform="matrix(-.00000009 .0390662 .0703192 .00000005 -10.188807 -3.763739)" gradientUnits="userSpaceOnUse" r="21.166656" xlink:href="#b"/><radialGradient id="e" cx="450.90894" cy="189.57936" gradientTransform="matrix(-.00000009 -.0390662 .0703192 -.00000005 -10.188807 31.797667)" gradientUnits="userSpaceOnUse" r="21.166656" xlink:href="#b"/><radialGradient id="f" cx="450.90894" cy="189.57936" gradientTransform="matrix(.00000009 .0390662 -.0703192 .00000005 26.065323 -3.76374)" gradientUnits="userSpaceOnUse" r="21.166656" xlink:href="#b"/><linearGradient id="g" gradientUnits="userSpaceOnUse" x1="5.29217456249" x2="5.29217456249" y1="14.0169675" y2="1.44805287502"><stop offset="0" stop-color="#9ccc65"/><stop offset="1" stop-color="#aed581"/></linearGradient><linearGradient id="h" gradientUnits="userSpaceOnUse" x1="7.938262" x2="7.938262" y1="14.0169675" y2="1.44805256249"><stop offset="0" stop-color="#bdbdbd"/><stop offset="1" stop-color="#e0e0e0"/></linearGradient><path d="m2.976562 13.96875h9.921876v.734375h-9.921876zm0 0" fill="url(#a)"/><path d="m12.898438 14.015625h1.324218v-.660156h-1.324218zm0 0" fill="url(#c)"/><path d="m2.976562 14.015625h-1.324218v.664063h1.324218zm0 0" fill="url(#d)"/><path d="m2.976562 14.015625h-1.324218v-.660156h1.324218zm0 0" fill="url(#e)"/><path d="m12.898438 14.015625h1.324218v.664063h-1.324218zm0 0" fill="url(#f)"/><path d="m2.316406 1.449219h11.246094c.363281 0 .660156.296875.660156.660156v11.246094c0 .367187-.296875.660156-.660156.660156h-11.246094c-.367187 0-.664062-.292969-.664062-.660156v-11.246094c0-.363281.296875-.660156.664062-.660156zm0 0" fill="url(#g)"/><path d="m2.316406 1.449219c-.367187 0-.664062.292969-.664062.660156v.082031c0-.367187.296875-.660156.664062-.660156h11.246094c.363281 0 .660156.292969.660156.660156v-.082031c0-.367187-.296875-.660156-.660156-.660156zm0 0" fill="#e6e6e6" fill-opacity=".392157"/><path d="m2.316406 14.015625c-.367187 0-.664062-.292969-.664062-.660156v-.082031c0 .367187.296875.660156.664062.660156h11.246094c.363281 0 .660156-.292969.660156-.660156v.082031c0 .367187-.296875.660156-.660156.660156zm0 0" fill-opacity=".196078"/><path d="m74.117922-168.629428h359.840637c11.62389 0 21.122983 9.499093 21.122983 21.122983v359.840637c0 11.748878-9.499093 21.122982-21.122983 21.122982h-359.840637c-11.748878 0-21.247971-9.374104-21.247971-21.122982v-359.840637c0-11.62389 9.499093-21.122983 21.247971-21.122983zm0 0" fill="none" stroke="#212121" stroke-linecap="round" stroke-width="3" transform="matrix(.031253 0 0 .031253 0 6.719392)"/><path d="m11.894531 4.089844c-.21875.003906-.417969.117187-.535156.300781l-3.546875 5.320313-2.742188-2.46875c-.171874-.160157-.421874-.214844-.648437-.140626-.222656.070313-.394531.257813-.441406.492188-.050781.230469.03125.472656.210937.628906l3.304688 2.976563c.144531.128906.335937.1875.523437.164062.191407-.023437.359375-.128906.464844-.289062l3.972656-5.953125c.136719-.203125.152344-.46875.035157-.6875-.121094-.21875-.351563-.351563-.597657-.34375zm0 0" fill="url(#h)"/><path d="m11.894531 4.089844c-.21875.003906-.417969.117187-.535156.300781l-3.546875 5.320313-2.742188-2.46875c-.207031-.191407-.519531-.226563-.765624-.089844-.25.140625-.378907.421875-.324219.703125.042969-.234375.210937-.425781.4375-.5.226562-.074219.476562-.019531.652343.140625l2.742188 2.46875 3.546875-5.320313c.117187-.183593.316406-.296875.535156-.300781.320313-.011719.601563.214844.664063.53125.039062-.199219-.015625-.398438-.144532-.550781-.128906-.152344-.320312-.238281-.519531-.234375zm0 0" fill="#fff"/><path d="m12.523438 5.003906c-.019532.042969-.042969.085938-.066407.125l-3.972656 5.953125c-.105469.15625-.273437.261719-.464844.285157-.1875.027343-.378906-.035157-.523437-.160157l-3.304688-2.980469c-.078125-.066406-.136718-.148437-.175781-.246093-.105469.261719-.035156.558593.175781.742187l3.304688 2.980469c.144531.125.335937.1875.523437.160156.191407-.023437.359375-.128906.464844-.285156l3.972656-5.953125c.125-.183594.148438-.417969.066407-.621094zm0 0" fill-opacity=".235294"/><path d="m380.588656-84.137497c-6.999332.124988-13.373723 3.749642-17.123365 9.624081l-113.489163 170.233744-87.741621-78.992457c-5.499474-5.124511-13.498711-6.874343-20.748018-4.49957-7.12432 2.249785-12.623795 8.249212-14.123652 15.748496-1.624844 7.374296.999905 15.123556 6.749356 20.123078l105.739902 95.240905c4.624559 4.124606 10.748974 5.999427 16.748401 5.249499 6.124415-.749929 11.498902-4.124606 14.87358-9.249117l127.112861-190.48181c4.374582-6.499379 4.874534-14.998567 1.124892-21.997899-3.87463-6.999332-11.248925-11.248926-19.123173-10.99895zm0 0" fill="none" stroke="#212121" stroke-linecap="round" stroke-linejoin="round" stroke-width="3" transform="matrix(.031253 0 0 .031253 0 6.719392)"/></svg>

<?xml version="1.0" encoding="UTF-8"?>
<svg xmlns="http://www.w3.org/2000/svg" xmlns:xlink="http://www.w3.org/1999/xlink" width="16pt" height="16pt" viewBox="0 0 16 16" version="1.1">
<defs>
<linearGradient id="linear0" gradientUnits="userSpaceOnUse" x1="254" y1="233.5" x2="254" y2="254.66667" gradientTransform="matrix(0.031253,0,0,0.031253,-0.00000125012,6.719392)">
<stop offset="0" style="stop-color:rgb(0%,0%,0%);stop-opacity:0.27451;"/>
<stop offset="1" style="stop-color:rgb(0%,0%,0%);stop-opacity:0;"/>
</linearGradient>
<radialGradient id="radial0" gradientUnits="userSpaceOnUse" cx="450.90894" cy="189.57936" fx="450.90894" fy="189.57936" r="21.166656" gradientTransform="matrix(0.0000000870852,-0.0390662,-0.0703192,-0.0000000507693,26.065324,31.797667)">
<stop offset="0" style="stop-color:rgb(0%,0%,0%);stop-opacity:0.313725;"/>
<stop offset="0.222222" style="stop-color:rgb(0%,0%,0%);stop-opacity:0.27451;"/>
<stop offset="1" style="stop-color:rgb(0%,0%,0%);stop-opacity:0;"/>
</radialGradient>
<radialGradient id="radial1" gradientUnits="userSpaceOnUse" cx="450.90894" cy="189.57936" fx="450.90894" fy="189.57936" r="21.166656" gradientTransform="matrix(-0.0000000870852,0.0390662,0.0703192,0.0000000507693,-10.188807,-3.763739)">
<stop offset="0" style="stop-color:rgb(0%,0%,0%);stop-opacity:0.313725;"/>
<stop offset="0.222222" style="stop-color:rgb(0%,0%,0%);stop-opacity:0.27451;"/>
<stop offset="1" style="stop-color:rgb(0%,0%,0%);stop-opacity:0;"/>
</radialGradient>
<radialGradient id="radial2" gradientUnits="userSpaceOnUse" cx="450.90894" cy="189.57936" fx="450.90894" fy="189.57936" r="21.166656" gradientTransform="matrix(-0.0000000870852,-0.0390662,0.0703192,-0.0000000507693,-10.188807,31.797667)">
<stop offset="0" style="stop-color:rgb(0%,0%,0%);stop-opacity:0.313725;"/>
<stop offset="0.222222" style="stop-color:rgb(0%,0%,0%);stop-opacity:0.27451;"/>
<stop offset="1" style="stop-color:rgb(0%,0%,0%);stop-opacity:0;"/>
</radialGradient>
<radialGradient id="radial3" gradientUnits="userSpaceOnUse" cx="450.90894" cy="189.57936" fx="450.90894" fy="189.57936" r="21.166656" gradientTransform="matrix(0.0000000870852,0.0390662,-0.0703192,0.0000000507693,26.065323,-3.76374)">
<stop offset="0" style="stop-color:rgb(0%,0%,0%);stop-opacity:0.313725;"/>
<stop offset="0.222222" style="stop-color:rgb(0%,0%,0%);stop-opacity:0.27451;"/>
<stop offset="1" style="stop-color:rgb(0%,0%,0%);stop-opacity:0;"/>
</radialGradient>
<linearGradient id="linear1" gradientUnits="userSpaceOnUse" x1="169.33333" y1="233.5" x2="169.33333" y2="-168.66666" gradientTransform="matrix(0.031253,0,0,0.031253,0,6.719392)">
<stop offset="0" style="stop-color:rgb(61.176471%,80%,39.607843%);stop-opacity:1;"/>
<stop offset="1" style="stop-color:rgb(68.235294%,83.529412%,50.588235%);stop-opacity:1;"/>
</linearGradient>
<linearGradient id="linear2" gradientUnits="userSpaceOnUse" x1="254" y1="233.5" x2="254" y2="-168.66667" gradientTransform="matrix(0.031253,0,0,0.031253,0,6.719392)">
<stop offset="0" style="stop-color:rgb(74.117647%,74.117647%,74.117647%);stop-opacity:1;"/>
<stop offset="1" style="stop-color:rgb(87.843137%,87.843137%,87.843137%);stop-opacity:1;"/>
</linearGradient>
</defs>
<g id="surface1">
<path style=" stroke:none;fill-rule:nonzero;fill:url(#linear0);" d="M 2.976562 13.96875 L 12.898438 13.96875 L 12.898438 14.703125 L 2.976562 14.703125 Z M 2.976562 13.96875 "/>
<path style=" stroke:none;fill-rule:nonzero;fill:url(#radial0);" d="M 12.898438 14.015625 L 14.222656 14.015625 L 14.222656 13.355469 L 12.898438 13.355469 Z M 12.898438 14.015625 "/>
<path style=" stroke:none;fill-rule:nonzero;fill:url(#radial1);" d="M 2.976562 14.015625 L 1.652344 14.015625 L 1.652344 14.679688 L 2.976562 14.679688 Z M 2.976562 14.015625 "/>
<path style=" stroke:none;fill-rule:nonzero;fill:url(#radial2);" d="M 2.976562 14.015625 L 1.652344 14.015625 L 1.652344 13.355469 L 2.976562 13.355469 Z M 2.976562 14.015625 "/>
<path style=" stroke:none;fill-rule:nonzero;fill:url(#radial3);" d="M 12.898438 14.015625 L 14.222656 14.015625 L 14.222656 14.679688 L 12.898438 14.679688 Z M 12.898438 14.015625 "/>
<path style=" stroke:none;fill-rule:nonzero;fill:url(#linear1);" d="M 2.316406 1.449219 L 13.5625 1.449219 C 13.925781 1.449219 14.222656 1.746094 14.222656 2.109375 L 14.222656 13.355469 C 14.222656 13.722656 13.925781 14.015625 13.5625 14.015625 L 2.316406 14.015625 C 1.949219 14.015625 1.652344 13.722656 1.652344 13.355469 L 1.652344 2.109375 C 1.652344 1.746094 1.949219 1.449219 2.316406 1.449219 Z M 2.316406 1.449219 "/>
<path style=" stroke:none;fill-rule:nonzero;fill:rgb(90.196078%,90.196078%,90.196078%);fill-opacity:0.392157;" d="M 2.316406 1.449219 C 1.949219 1.449219 1.652344 1.742188 1.652344 2.109375 L 1.652344 2.191406 C 1.652344 1.824219 1.949219 1.53125 2.316406 1.53125 L 13.5625 1.53125 C 13.925781 1.53125 14.222656 1.824219 14.222656 2.191406 L 14.222656 2.109375 C 14.222656 1.742188 13.925781 1.449219 13.5625 1.449219 Z M 2.316406 1.449219 "/>
<path style=" stroke:none;fill-rule:nonzero;fill:rgb(0%,0%,0%);fill-opacity:0.196078;" d="M 2.316406 14.015625 C 1.949219 14.015625 1.652344 13.722656 1.652344 13.355469 L 1.652344 13.273438 C 1.652344 13.640625 1.949219 13.933594 2.316406 13.933594 L 13.5625 13.933594 C 13.925781 13.933594 14.222656 13.640625 14.222656 13.273438 L 14.222656 13.355469 C 14.222656 13.722656 13.925781 14.015625 13.5625 14.015625 Z M 2.316406 14.015625 "/>
<path style="fill:none;stroke-width:3;stroke-linecap:round;stroke-linejoin:miter;stroke:rgb(12.941176%,12.941176%,12.941176%);stroke-opacity:1;stroke-miterlimit:4;" d="M 74.117922 -168.629428 L 433.958559 -168.629428 C 445.582449 -168.629428 455.081542 -159.130335 455.081542 -147.506445 L 455.081542 212.334192 C 455.081542 224.08307 445.582449 233.457174 433.958559 233.457174 L 74.117922 233.457174 C 62.369044 233.457174 52.869951 224.08307 52.869951 212.334192 L 52.869951 -147.506445 C 52.869951 -159.130335 62.369044 -168.629428 74.117922 -168.629428 Z M 74.117922 -168.629428 " transform="matrix(0.031253,0,0,0.031253,0,6.719392)"/>
<path style=" stroke:none;fill-rule:nonzero;fill:url(#linear2);" d="M 11.894531 4.089844 C 11.675781 4.09375 11.476562 4.207031 11.359375 4.390625 L 7.8125 9.710938 L 5.070312 7.242188 C 4.898438 7.082031 4.648438 7.027344 4.421875 7.101562 C 4.199219 7.171875 4.027344 7.359375 3.980469 7.59375 C 3.929688 7.824219 4.011719 8.066406 4.191406 8.222656 L 7.496094 11.199219 C 7.640625 11.328125 7.832031 11.386719 8.019531 11.363281 C 8.210938 11.339844 8.378906 11.234375 8.484375 11.074219 L 12.457031 5.121094 C 12.59375 4.917969 12.609375 4.652344 12.492188 4.433594 C 12.371094 4.214844 12.140625 4.082031 11.894531 4.089844 Z M 11.894531 4.089844 "/>
<path style=" stroke:none;fill-rule:nonzero;fill:rgb(100%,100%,100%);fill-opacity:1;" d="M 11.894531 4.089844 C 11.675781 4.09375 11.476562 4.207031 11.359375 4.390625 L 7.8125 9.710938 L 5.070312 7.242188 C 4.863281 7.050781 4.550781 7.015625 4.304688 7.152344 C 4.054688 7.292969 3.925781 7.574219 3.980469 7.855469 C 4.023438 7.621094 4.191406 7.429688 4.417969 7.355469 C 4.644531 7.28125 4.894531 7.335938 5.070312 7.496094 L 7.8125 9.964844 L 11.359375 4.644531 C 11.476562 4.460938 11.675781 4.347656 11.894531 4.34375 C 12.214844 4.332031 12.496094 4.558594 12.558594 4.875 C 12.597656 4.675781 12.542969 4.476562 12.414062 4.324219 C 12.285156 4.171875 12.09375 4.085938 11.894531 4.089844 Z M 11.894531 4.089844 "/>
<path style=" stroke:none;fill-rule:nonzero;fill:rgb(0%,0%,0%);fill-opacity:0.235294;" d="M 12.523438 5.003906 C 12.503906 5.046875 12.480469 5.089844 12.457031 5.128906 L 8.484375 11.082031 C 8.378906 11.238281 8.210938 11.34375 8.019531 11.367188 C 7.832031 11.394531 7.640625 11.332031 7.496094 11.207031 L 4.191406 8.226562 C 4.113281 8.160156 4.054688 8.078125 4.015625 7.980469 C 3.910156 8.242188 3.980469 8.539062 4.191406 8.722656 L 7.496094 11.703125 C 7.640625 11.828125 7.832031 11.890625 8.019531 11.863281 C 8.210938 11.839844 8.378906 11.734375 8.484375 11.578125 L 12.457031 5.625 C 12.582031 5.441406 12.605469 5.207031 12.523438 5.003906 Z M 12.523438 5.003906 "/>
<path style="fill:none;stroke-width:3;stroke-linecap:round;stroke-linejoin:round;stroke:rgb(12.941176%,12.941176%,12.941176%);stroke-opacity:1;stroke-miterlimit:4;" d="M 380.588656 -84.137497 C 373.589324 -84.012509 367.214933 -80.387855 363.465291 -74.513416 L 249.976128 95.720328 L 162.234507 16.727871 C 156.735033 11.60336 148.735796 9.853528 141.486489 12.228301 C 134.362169 14.478086 128.862694 20.477513 127.362837 27.976797 C 125.737993 35.351093 128.362742 43.100353 134.112193 48.099875 L 239.852095 143.34078 C 244.476654 147.465386 250.601069 149.340207 256.600496 148.590279 C 262.724911 147.84035 268.099398 144.465673 271.474076 139.341162 L 398.586937 -51.140648 C 402.961519 -57.640027 403.461471 -66.139215 399.711829 -73.138547 C 395.837199 -80.137879 388.462904 -84.387473 380.588656 -84.137497 Z M 380.588656 -84.137497 " transform="matrix(0.031253,0,0,0.031253,0,6.719392)"/>
</g>
</svg>
